X: 161
T: Miss Louisa Drummonds Reel
%O: 1795
%R: reel
Z: 2018 John Chambers <jc:trillian.mit.edu>
B: Wm. Campbell "10th Book of New and Favorite Country Dances, Strathspey Reels" 1795 p.16
F: https://archive.org/details/campbellstenthbo00camp
M: C|
L: 1/8
K: Cm
% - - - - - - - - - - - - - - - - - - - - - - - - -
% Voice 1 arranged for small-scale proofreading
V: 1 staves=2
G |\
c2Gc EcGc | B2FB DB,-B,=B |\
Tc2Gc EcGc | BF (G/F/E/D/) EC-C=B |\
Tc>cGc EcGc |
TB>BFB DB,-B,D |\
CDEC DGFA | GG, (G/F/E/D/) ECC |[| G |\
Tc2(gf) edce | dBfd bdfd | Tc2gf edce |
dBG=B cCCG | Tc2gf edce |\
dBfd bdfd | cgeg fbdf |\
ec e/d/c/=B/ cCC |]
% - - - - - - - - - - - - - - - - - - - - - - - - -
% Voice 1 preserves the original staff layout
V: 2 clef=bass middle=d
z |\
c2c2 c2c2 | B2B2 B2z2 |\
c2c2 c2c2 | B2G2 c2cz |\
c2c2 c2c2 |
B2B2 B2B2 | cdec d2f2 |\
g2G2 c2c |[| z |\
c2c2 c2c2 |\
B2B2 B2B2 | c2c2 c2c2 |
g2G2 c2c2 |\
c2c2 c2c2 | B2B2 B2B2 |\
c2c2 B2b2 | g2G2 c2 c |]
% - - - - - - - - - - - - - - - - - - - - - - - - -
%%begintext align
%% The 1st Cu set to the 2d Lady &
%% hands 3 round the same with the
%% 2d Gent Lead down the middle
%% and Allemande
%%endtext
% - - - - - - - - - - - - - - - - - - - - - - - - -

%%sep 1 1 500
%%sep 1 1 500

